X:1
T:Czerny - The Art Oof Finger Dexterity
T:Czerny - The Art Of Finger Dexterity
T:7. Changing the Fingers on one and the same Key
T:C.Czerny, Op. 740, Book 1
T:--
C:C.Czerny, Op. 740, Book 1
Z:--
%%score { 1 | ( 2 3 ) }
L:1/8
Q:1/4=110
M:2/2
K:C
V:1 treble nm="Piano"
V:2 treble 
V:3 treble 
V:1
"C" g/g/e'/g/"G/B" g/g/g'/g/"Am" f/f/f'/f/"Em/G" e/e/e'/e/ | %1
"Dm/F" d/d/d'/d/"C/E" c/c/c'/c/"G7/D" B/B/b/B/"C" c/c/c'/c/ | %2
"G" d/d/d'/d/ d/d/d'/d/"C/G" e/e/e'/e/ e/e/e'/e/ | %3
"C#dim" g/g/g'/g/ f/f/f'/f/"G" d/d/d'/d/ d/d/d'/d/ | %4
"C"!8va(! e/e/e'/e/"G/B" g/g/g'/g/"D7" ^f/f/^f'/f/"G" g/g/g'/g/ | %5
"D7/F#" a/a/a'/a/ c'/c'/c''/c'/"G" b/b/b'/b/ d'/d'/d''/d'/ | %6
"Am/C" e'/e'/e''/e'/ c'/c'/c''/c'/"D7" a/a/a'/a/ d'/d'/d''/d'/ | %7
 b/b/b'/b/ g/g/g'/g/ g/g/^f'/g/ g/g/=f'/g/ || %8
"C" g/g/e'/g/"G/B" g/g/g'/g/"Am" f/f/f'/f/"Em/G" e/e/e'/e/!8va)! | %9
"Dm/F" d/d/d'/d/"C/E" c/c/c'/c/"G7/D" B/B/b/B/"C" c/c/c'/c/ | %10
"G" d/d/d'/d/ d/d/d'/d/"C/G" e/e/e'/e/ e/e/e'/e/ | %11
"C#dim" g/g/g'/g/ f/f/f'/f/"G" d/d/d'/d/ d/d/d'/d/ | e/e/e'/e/ f/f/f'/f/ ^f/f/^f'/f/ g/g/g'/g/ | %13
!8va(! a/a/a'/a/ c'/c'/c''/c'/ b/b/b'/b/ a/a/a'/a/ | %14
 g/g/g'/g/ c'/c'/c''/c'/ e'/e'/e''/e'/ d'/d'/d''/d'/ | %15
 c'/c'/c''/c'/ g/g/g'/g/!8va)! e/e/e'/e/ d/d/d'/d/ | z/ d'/d/d/ d/d'/d/d/ d/d'/d/d/ d/d'/d/d/ | %17
 d/d'/d/d/ d/d'/d/d/ d/d'/d/d/ d/d'/d/d/ | d/d'/d/d/ d/d'/d/d/ d/d'/d/d/ d/d'/d/d/ | %19
!8va(! g/g'/g/g/ g/g'/g/g/ g/g'/g/g/ g/g'/g/g/ |"B7" b/b'/b/b/ b/b'/b/b/ b/b'/b/b/ a/a'/a/a/ | %21
"C" a/a'/a/a/ g/g'/g/g/"C#dim" ^f/^f'/f/f/ e/e'/e/e/ | %22
"G/D" d/d'/d/d/ g/g'/g/g/"D7" ^f/^f'/f/f/ a/a'/a/a/ | %23
"G" g/g'/g/g/!8va)! d'/d/d/d/ c'/d/d/d/ b/d/d/d/ | c'/d/d/d/ a/d/d/d/ g/d/d/d/ ^f/d/d/d/ | %25
 g/d/d/d/ d'/d/d/d/ c'/d/d/d/ b/d/d/d/ | c'/d/d/d/ a/d/d/d/ g/d/d/d/ ^f/d/d/d/ | %27
 g/g/g/g/ g'/g/g/g/!8va(! a/a/a/a/ a'/a/a/a/ | b/b/b/b/ b'/b/b/b/ c'/c'/c'/c'/ c''/c'/c'/c'/ | %29
 d'/d'/d'/d'/ d''/d'/d'/d'/ e'/e'/e'/e'/ e''/e'/e'/e'/ | %30
 f'/f'/f'/f'/ f''/f'/f'/f'/ f''/f'/f'/f'/ f''/f'/f'/f'/ | %31
 f''/f'/f'/f'/ d''/d'/d'/d'/ b'/b/b/b/ g'/g/g/g/!8va)! | f'/f/f/f/ d'/d/d/d/ b/B/B/B/ g/G/G/G/ | %33
 D/G/G/G/ g/G/G/G/ E/A/A/A/ a/A/A/A/ | F/B/B/B/ b/B/B/B/ G/d/d/d/ d'/g/g/g/ || %35
"C" g/g/e'/g/"G/B" g/g/g'/g/"Am" f/f/f'/f/"Em/G" e/e/e'/e/ | %36
"Dm/F" d/d/d'/d/"C/E" c/c/c'/c/"G7/D" B/B/b/B/"C" c/c/c'/c/ | %37
"G" d/d/d'/d/ d/d/d'/d/"C/G" e/e/e'/e/ e/e/e'/e/ | %38
"C#dim" g/g/g'/g/ f/f/f'/f/"G" d/d/d'/d/ d/d/d'/d/ | %39
"C"!8va(! e/e/e'/e/"G/B" g/g/g'/g/"D7" ^f/f/^f'/f/"G" g/g/g'/g/ | %40
"D7/F#" a/a/a'/a/ c'/c'/c''/c'/"G" b/b/b'/b/ d'/d'/d''/d'/ | %41
"Am/C" e'/e'/e''/e'/ c'/c'/c''/c'/"D7" a/a/a'/a/ d'/d'/d''/d'/ | %42
 b/b/b'/b/ g/g/g'/g/ g/g/^f'/g/ g/g/=f'/g/ | %43
"C" g/g/e'/g/"G/B" g/g/g'/g/"Am" f/f/f'/f/"Em/G" e/e/e'/e/!8va)! | %44
"Dm/F" d/d/d'/d/"C/E" c/c/c'/c/"G7/D" B/B/b/B/"C" c/c/c'/c/ | %45
"G" d/d/d'/d/ d/d/d'/d/"C/G" e/e/e'/e/ e/e/e'/e/ | %46
"C#dim" g/g/g'/g/ f/f/f'/f/"G" d/d/d'/d/ d/d/d'/d/ | e/e/e'/e/ f/f/f'/f/ ^f/f/^f'/f/ g/g/g'/g/ | %48
!8va(! a/a/a'/a/ c'/c'/c''/c'/ b/b/b'/b/ a/a/a'/a/!8va)! | g/g/g'/g/ e/e/e'/e/ d/f/f'/f/ B/B/b/B/ | %50
 c/c/c/c/ c'/c/c/c/ A/c/c/c/ c'/c/c/c/ | G/c/c/c/ c'/c/c/c/ A/c/c/c/ c'/c/c/c/ | %52
 G/g/g/g/ g'/g/g/g/ d/f/f/f/ f'/f/f/f/ | c/e/e/e/ e'/e/e/e/ B/d/d/d/ d'/d/d/d/ | %54
 c/c/c/c/ c'/c/c/c/ A/c/c/c/ c'/c/c/c/ | G/c/c/c/ c'/c/c/c/ A/c/c/c/ c'/c/c/c/ | %56
 G/g/g/g/ g'/g/g/g/ d/f/f/f/ f'/f/f/f/ | c/e/e/e/ e'/e/e/e/ B/d/d/d/ d'/d/d/d/ | %58
 c/c/c/c/ c'/c'/a/a/ b/b/g/g/ a/a/f/f/ | g/g/e/e/ f/f/d/d/ e/e/c/c/ d/d/B/B/ | %60
 c/c/c/c/ c'/c'/a/a/ b/b/g/g/ a/a/f/f/ | g/g/e/e/ f/f/d/d/ e/e/c/c/ d/d/B/B/ | %62
 c/c/c/c/ e/e/e/e/ g/g/g/g/ b/b/b/b/ |!8va(! c'/c'/c'/c'/ e'/e'/e'/e'/ g'/g'/g'/g'/ b'/b'/b'/b'/ | %64
 c''/c''/c''/c''/ e''/c''/g'/e'/ g'/g'/g'/g'/ c''/g'/e'/c'/ | %65
 e'/e'/e'/e'/ g'/e'/c'/g/ c'/c'/c'/c'/ e'/c'/g/e/!8va)! | g/g/g/g/ c'/g/e/c/ e/e/e/e/ g/e/c/G/ | %67
 c/c/c/c/ e/c/G/E/ G/G/G/G/ c/G/E/G/ | C z z2 [cegc'] z z2 |!8va(! [c'e'g'c''] z!8va)! z2 z4 |] %70
V:2
 [ce] z [Bd] z [Ac] z [GB] z | [FA] z [EG] z [DFG] z [CEG] z | [B,DG] z [G,G] z [CEG] z [G,G] z | %3
 [^CEG] z [DFG] z [G,B,G]4 | [CEG] z [B,DG] z[K:bass] [A,CD] z [G,B,D] z | %5
 [^F,A,D] z [D,F,D] z [G,D] z [B,,G,B,] z | C, z [E,A,C] z D, z [^F,CD] z | %7
 [G,,G,] z[K:treble] [GB] z ([Ac]2 [Bd]2) || [ce] z [Bd] z [Ac] z [GB] z | %9
 [FA] z [EG] z [DFG] z [CEG] z | [B,DG] z [G,G] z [CEG] z [G,G] z | [^CEG] z [DFG] z [G,B,G]4 | %12
[K:bass] [C,C] z [D,C] z [^D,C] z [E,C] z | [F,,F,] z [A,CF] z [^F,,^F,] z [F,C_E] z | %14
 [G,,G,] z [G,C=E] z [G,,G,] z [G,B,F] z | [C,C] z[K:treble] [EG] z [CEG]4 | %16
 [G,B,G] z [GB] z [DA] z [B,G] z | [D^FA] z [DGB] z [DAc]4 | [D^FA] z [DAc] z [DGB] z [DFA] z | %19
 [GB] z [GAc] z [GBd]4 |[K:bass] [B,,B,] z [^F,B,^D] z [B,,B,] z [F,B,D] z | %21
 [C,C] z [CE] z [^C,^C] z [G,_B,E] z | [D,D] z [=B,DG] z [D,,D,] z [D,^F,C] z | %23
 G, z [B,D] z [A,C] z [^G,B,] z | [A,C] z [^D,C] z ([=G,B,] z [A,C]) z | %25
 B, z[K:treble] B z [Ac] z [^GB] z | [Ac] z [^Dc] z ([GB] z [Ac]) z | %27
 B z[K:bass] [G,,G,] z [G,C^F] z [G,,G,] z | [G,D=F] z [G,,G,] z [G,CE] z [G,,G,] z | %29
 [G,B,D] z [G,,G,] z [G,_B,^C] z [G,,G,] z | [G,=B,D] z [G,,G,] z [D,,D,] z [B,,,B,,] z | %31
 [G,,,G,,] z [G,,B,,D,G,]6- | [G,,B,,D,G,]8- | [G,,B,,D,G,]2 B,2 C2 ^C2 | %34
 D4 [B,F] z[K:treble] [GB]2 || [ce] z [Bd] z [Ac] z [GB] z | [FA] z [EG] z [DFG] z [CEG] z | %37
 [B,DG] z [G,G] z [CEG] z [G,G] z | [^CEG] z [DFG] z [G,B,G]4 | %39
 [CEG] z [B,DG] z[K:bass] [A,CD] z [G,B,D] z | [^F,A,D] z [D,F,D] z [G,D] z [B,,G,B,] z | %41
 C, z [E,A,C] z D, z [^F,CD] z | [G,,G,] z[K:treble] [GB] z ([Ac]2 [Bd]2) | %43
 [ce] z [Bd] z [Ac] z [GB] z | [FA] z [EG] z [DFG] z [CEG] z | [B,DG] z [G,G] z [CEG] z [G,G] z | %46
 [^CEG] z [DFG] z [G,B,G]4 |[K:bass] [C,C] z [D,C] z [^D,C] z [E,C] z | %48
 [F,,F,] z [A,CF] z [^F,,^F,] z [F,C_E] z | [G,,G,] z [G,C=E] z [G,,G,] z [G,DF] z | %50
 [E,G,C]4 [F,A,C]4 | [E,G,C]4 [^D,^F,C]4 | [E,G,C]4 [F,,F,] z [F,A,D] z | %53
 [G,,G,] z [G,CE] z [G,,G,] z [G,DF] z | [E,G,C]4 [F,A,C]4 | [E,G,C]4 [^D,^F,C]4 | %56
 [E,G,C]4 [F,,F,] z [F,A,D] z | [G,,G,] z [G,CE] z [G,,G,] z [G,DF] z | %58
 [C,E,C] z[K:treble] ([Ac]2 [GB]2 [FA]2 | [EG]) z[K:bass] [F,A,D] z [G,CE] z [G,DF] z | %60
 [C,E,C] z[K:treble] ([Ac]2 [GB]2 [FA]2 | [EG]) z[K:bass] [F,A,D] z [G,CE] z [G,DF] z | %62
 [G,,G,] z [G,CE] z [G,,G,] z [G,DF] z | [G,,G,] z [G,CE] z [G,,G,] z [G,DF] z | %64
 [C,E,G,C]4 [C,,C,] z [E,G,] z | [C,,C,] z [C,E,G,] z [C,,C,] z [E,G,C] z | %66
 [C,,C,] z [G,CE] z [C,,C,] z [E,G,C] z | [C,,C,] z [C,E,G,] z [C,,C,] z [C,E,] z | %68
 [C,,C,] z z2 [C,E,G,C] z z2 | [C,,C,] z z2 z4 |] %70
V:3
 x8 | x8 | x8 | x8 | x4[K:bass] x4 | x8 | x8 | x2[K:treble] x2 G4 || x8 | x8 | x8 | x8 | %12
[K:bass] x8 | x8 | x8 | x2[K:treble] x6 | x8 | x8 | x8 | x8 |[K:bass] x8 | x8 | x8 | %23
 [G,,B,,]2 (D,6 | D,8) | G, z[K:treble] (D6 | D8) | G z[K:bass] x6 | x8 | x8 | x8 | x8 | x8 | %33
 z2 G,6- | G, z G,2- G, z[K:treble] x2 || x8 | x8 | x8 | x8 | x4[K:bass] x4 | x8 | x8 | %42
 x2[K:treble] x2 G4 | x8 | x8 | x8 | x8 |[K:bass] x8 | x8 | x8 | E,2 C,2 F,2 C,2 | %51
 E,2 C,2 ^D,2 C,2 | E,2 C,2 x4 | x8 | E,2 C,2 F,2 C,2 | E,2 C,2 ^D,2 C,2 | E,2 C,2 x4 | x8 | %58
 x2[K:treble] C6- | C x[K:bass] x6 | x2[K:treble] C6- | C x[K:bass] x6 | x8 | x8 | x8 | x8 | x8 | %67
 x8 | x8 | x8 |] %70

